austria/municipalities/31309.svg

<?xml version="1.0" encoding="UTF-8" standalone="no"?>
<!-- Created with Inkscape (http://www.inkscape.org/) -->

<svg
   xmlns:dc="http://purl.org/dc/elements/1.1/"
   xmlns:cc="http://creativecommons.org/ns#"
   xmlns:rdf="http://www.w3.org/1999/02/22-rdf-syntax-ns#"
   xmlns:svg="http://www.w3.org/2000/svg"
   xmlns="http://www.w3.org/2000/svg"
   xmlns:sodipodi="http://sodipodi.sourceforge.net/DTD/sodipodi-0.dtd"
   xmlns:inkscape="http://www.inkscape.org/namespaces/inkscape"
   width="678.24921"
   height="727.78296"
   id="svg4083"
   version="1.1"
   inkscape:version="0.48.4 r9939"
   sodipodi:docname="AUT Furth bei Göttweig COA.svg">
  <defs
     id="defs4085">
    <inkscape:path-effect
       effect="spiro"
       id="path-effect5275"
       is_visible="true" />
    <inkscape:path-effect
       effect="spiro"
       id="path-effect5169"
       is_visible="true" />
    <inkscape:path-effect
       effect="spiro"
       id="path-effect5164"
       is_visible="true" />
    <inkscape:path-effect
       effect="spiro"
       id="path-effect5032"
       is_visible="true" />
    <inkscape:path-effect
       effect="spiro"
       id="path-effect4958"
       is_visible="true" />
    <inkscape:path-effect
       effect="spiro"
       id="path-effect4761"
       is_visible="true" />
    <inkscape:path-effect
       effect="spiro"
       id="path-effect4958-8"
       is_visible="true" />
    <inkscape:path-effect
       effect="spiro"
       id="path-effect5032-5"
       is_visible="true" />
    <inkscape:path-effect
       effect="spiro"
       id="path-effect5032-1"
       is_visible="true" />
    <inkscape:path-effect
       effect="spiro"
       id="path-effect5032-5-1"
       is_visible="true" />
    <inkscape:path-effect
       effect="spiro"
       id="path-effect5275-1"
       is_visible="true" />
  </defs>
  <sodipodi:namedview
     id="base"
     pagecolor="#ffffff"
     bordercolor="#666666"
     borderopacity="1.0"
     inkscape:pageopacity="0.0"
     inkscape:pageshadow="2"
     inkscape:zoom="1.0758489"
     inkscape:cx="339.13869"
     inkscape:cy="363.8906"
     inkscape:document-units="px"
     inkscape:current-layer="layer1"
     showgrid="false"
     inkscape:window-width="1280"
     inkscape:window-height="998"
     inkscape:window-x="-4"
     inkscape:window-y="-4"
     inkscape:window-maximized="1"
     fit-margin-top="0"
     fit-margin-left="0"
     fit-margin-right="0"
     fit-margin-bottom="0"
     inkscape:snap-midpoints="true"
     inkscape:snap-smooth-nodes="true"
     inkscape:object-nodes="true"
     inkscape:snap-nodes="true"
     inkscape:object-paths="false" />
  <metadata
     id="metadata4088">
    <rdf:RDF>
      <cc:Work
         rdf:about="">
        <dc:format>image/svg+xml</dc:format>
        <dc:type
           rdf:resource="http://purl.org/dc/dcmitype/StillImage" />
        <dc:title></dc:title>
      </cc:Work>
    </rdf:RDF>
  </metadata>
  <g
     inkscape:label="Ebene 1"
     inkscape:groupmode="layer"
     id="layer1"
     transform="translate(7.8589644,-44.305654)">
    <path
       style="fill:#009900;fill-opacity:1;stroke:none"
       d="m 3.054991,49.455564 c -6.65275,72.412056 -7.52885,145.392336 -2.61568,217.953136 6.97618,103.02863 26.46625,207.51079 77.15241,296.46994 55.633449,97.64214 148.401949,171.89845 253.687119,203.06182 105.28527,-31.16337 198.05548,-105.41968 253.6889,-203.06182 50.68618,-88.95914 70.1762,-193.44131 77.1524,-296.46994 4.91317,-72.5608 4.03707,-145.54108 -2.61571,-217.953136 H 331.27884 z"
       id="path1652-4-1-7"
       inkscape:connector-curvature="0" />
    <path
       style="fill:#ff0000;stroke:#000000;stroke-width:1px;stroke-linecap:butt;stroke-linejoin:miter;stroke-opacity:1;fill-opacity:1"
       d="M 49 5.15625 L 49 56.15625 L 203.3125 205 L 375.75 288.5 L 481.03125 379.28125 L 564.53125 475.46875 L 595.875 514.15625 C 644.30353 426.38989 663.13388 324.0352 669.96875 223.09375 C 674.88192 150.53295 674.02778 77.568306 667.375 5.15625 L 339.125 5.15625 L 49 5.15625 z "
       transform="translate(-7.8589644,44.305654)"
       id="path5167" />
    <path
       style="fill:#009900;fill-opacity:1;stroke:#000000;stroke-width:4.99999952;stroke-linecap:round;stroke-linejoin:round;stroke-miterlimit:4;stroke-opacity:1;stroke-dasharray:none"
       d="M 437.21875 237.6875 C 430.62851 237.6875 424.01569 238.9616 418.5 241.5 C 400.64931 249.71516 392.64983 269.09267 384.21875 285.125 C 381.85372 289.62228 379.52679 294.79129 377.28125 300.40625 L 410.21875 315.75 L 501 393.78125 L 499.34375 397.84375 L 506.375 397.84375 L 575.5625 397.84375 L 593.65625 397.84375 L 642.28125 397.84375 C 646.20742 383.61512 649.66089 369.23661 652.6875 354.71875 C 646.43119 330.95417 637.84978 302.78544 628.5625 285.125 C 620.13142 269.09267 612.13195 249.71516 594.28125 241.5 C 583.24988 236.4232 567.93762 236.4232 556.90625 241.5 C 550.49497 244.45057 545.3468 248.84176 541 254 C 536.65321 248.84176 531.50503 244.45057 525.09375 241.5 C 514.06238 236.4232 498.75012 236.4232 487.71875 241.5 C 481.30747 244.45057 476.1593 248.84176 471.8125 254 C 467.46571 248.84176 462.31753 244.45057 455.90625 241.5 C 450.39057 238.9616 443.80899 237.6875 437.21875 237.6875 z "
       transform="translate(-7.8589644,44.305654)"
       id="path4956-7" />
    <path
       style="fill:#0000ff;fill-opacity:1;stroke:#000000;stroke-width:4.99999952;stroke-linecap:round;stroke-linejoin:round;stroke-miterlimit:4;stroke-opacity:1;stroke-dasharray:none"
       d="m 533.14077,298.30564 6.97431,9.01836 c 3.33204,5.30046 6.51822,10.69262 9.55372,16.16831 2.62354,4.73256 5.13452,9.52751 7.53011,14.37944"
       id="path5030-6"
       inkscape:path-effect="#path-effect5032-1"
       inkscape:original-d="m 533.14077,298.30564 6.97431,9.01836 9.55372,16.16831 7.53011,14.37944"
       inkscape:connector-curvature="0" />
    <path
       style="fill:#0000ff;fill-opacity:1;stroke:#000000;stroke-width:4.99999952;stroke-linecap:round;stroke-linejoin:round;stroke-miterlimit:4;stroke-opacity:1;stroke-dasharray:none"
       d="m 463.95327,298.30565 6.97431,9.01836 c 3.33204,5.30046 6.51822,10.69262 9.55372,16.16831 2.62354,4.73256 5.13452,9.52751 7.53011,14.37944"
       id="path5030-5-1"
       inkscape:path-effect="#path-effect5032-5-1"
       inkscape:original-d="m 463.95327,298.30565 6.97431,9.01836 9.55372,16.16831 7.53011,14.37944"
       inkscape:connector-curvature="0" />
    <path
       inkscape:connector-curvature="0"
       style="fill:#ffd700;fill-opacity:1;stroke:#000000;stroke-width:8;stroke-linecap:round;stroke-linejoin:miter;stroke-miterlimit:4;stroke-opacity:1;stroke-dasharray:none"
       d="m 24.172286,427.2119 c 9.617085,38.31545 22.508654,75.53267 39.71875,110.71875 l 534.781254,0 c 17.20937,-35.18458 30.07055,-72.40502 39.6875,-110.71875 l -614.187504,0 z"
       id="rect4738" />
    <path
       inkscape:connector-curvature="0"
       style="fill:#ffffff;stroke:#000000;stroke-width:8;stroke-linecap:round;stroke-linejoin:round;stroke-miterlimit:4;stroke-opacity:1;stroke-dasharray:none"
       d="m 3.04702,49.461903 c -1.78907,19.47317 -7.4211221,39.258287 -4.09375,58.531247 2.7498399,15.92775 10.0532972,31.25504 19.40625,44.4375 32.095908,45.23736 76.580038,81.30017 121.93513,113.2295 75.22441,52.9569 171.11797,72.24079 245.00237,127.05175 50.1804,37.2262 94.26927,83.56137 130.84375,134.21875 17.47054,24.19752 28.87861,51.40543 41.1875,79.5 10.00457,-13.60449 19.22786,-27.82469 27.625,-42.5625 8.74998,-15.35706 23.53125,-47.375 23.53125,-47.375 0,0 -13.53468,-31.79618 -23.53125,-45.71875 C 552.50439,425.58172 512.99304,384.69705 468.75302,350.9609 401.79153,299.89802 317.00857,276.62234 247.32827,229.3369 191.49726,191.44966 130.78757,155.1298 91.23452,100.46627 80.535943,85.680512 75.36674,70.415995 71.32827,49.461903 z"
       id="path4759-9"
       sodipodi:nodetypes="caaaaacscaaaacc" />
    <path
       style="fill:none;stroke:#000000;stroke-width:10.3125;stroke-linecap:butt;stroke-linejoin:round;stroke-miterlimit:4;stroke-opacity:1;stroke-dasharray:none"
       d="m 3.054992,49.455563 c -6.65275,72.412057 -7.52885,145.392337 -2.61568,217.953137 6.97618,103.02863 26.46625,207.51079 77.15241,296.46994 55.633448,97.64214 148.401948,171.89845 253.687118,203.06182 105.28527,-31.16337 198.05548,-105.41968 253.6889,-203.06182 50.68618,-88.95914 70.1762,-193.44131 77.1524,-296.46994 4.91317,-72.5608 4.03707,-145.54108 -2.61571,-217.953137 H 331.27884 z"
       id="path1652-4-1"
       inkscape:connector-curvature="0" />
    <path
       inkscape:connector-curvature="0"
       style="fill:#ffffff;stroke:#000000;stroke-width:5;stroke-linecap:round;stroke-linejoin:round;stroke-miterlimit:4;stroke-opacity:1;stroke-dasharray:none"
       d="m 452.45327,79.305653 c 0,0 9.57958,10.6039 12.875,16.875 7.32511,13.939507 11.97252,29.395087 14.6875,44.906247 0.39138,2.23601 0.61837,4.99801 0.78125,7.9375 -2.47201,-0.16641 -4.80273,-0.38338 -6.71875,-0.71875 -15.51116,-2.71498 -30.96674,-7.33113 -44.90625,-14.65625 -6.2711,-3.29542 -16.875,-12.90625 -16.875,-12.90625 l 0,46.25 0,46.21875 c 0,0 10.6039,-9.57958 16.875,-12.875 13.93951,-7.32511 29.39509,-11.97252 44.90625,-14.6875 1.9163,-0.33542 4.24633,-0.55555 6.71875,-0.71875 -0.16287,2.93949 -0.38986,5.73275 -0.78125,7.96875 -2.71498,15.51116 -7.36239,30.96674 -14.6875,44.90625 -3.29542,6.2711 -12.875,16.875 -12.875,16.875 l 46.21875,0 46.25,0 c 0,0 -9.61083,-10.6039 -12.90625,-16.875 -7.32511,-13.93951 -11.94127,-29.39509 -14.65625,-44.90625 -0.39854,-2.27691 -0.6771,-5.12575 -0.84375,-8.125 3.45695,0.15558 6.78304,0.42132 9.375,0.875 15.51116,2.71498 30.96674,7.36239 44.90625,14.6875 6.2711,3.29542 16.875,12.875 16.875,12.875 l 0,-46.21875 0,-46.25 c 0,0 -10.6039,9.61083 -16.875,12.90625 -13.93951,7.32511 -29.39509,11.94127 -44.90625,14.65625 -2.59175,0.45364 -5.91836,0.71421 -9.375,0.875 0.16666,-2.99925 0.44522,-5.81684 0.84375,-8.09375 2.71498,-15.51116 7.33114,-30.96674 14.65625,-44.906247 3.29542,-6.2711 12.90625,-16.875 12.90625,-16.875 l -46.25,0 -46.21875,0 z"
       id="path5273" />
  </g>
</svg>

<svg xmlns="http://www.w3.org/2000/svg" width="678.249" height="727.783"><path style="fill:#090;fill-opacity:1;stroke:none" d="M3.055 49.456A1371.32 1371.32 0 0 0 .439 267.409c6.976 103.028 26.467 207.51 77.153 296.47 55.633 97.642 148.402 171.898 253.687 203.061 105.285-31.163 198.055-105.42 253.689-203.061 50.686-88.96 70.176-193.442 77.152-296.47a1371.317 1371.317 0 0 0-2.616-217.953H331.28z" transform="translate(7.859 -44.306)"/><path style="fill:red;stroke:#000;stroke-width:1px;stroke-linecap:butt;stroke-linejoin:miter;stroke-opacity:1;fill-opacity:1" d="M49 5.156v51L203.313 205l172.437 83.5 105.281 90.781 83.5 96.188 31.344 38.687c48.429-87.766 67.259-190.12 74.094-291.062 4.913-72.561 4.059-145.526-2.594-217.938H49z"/><path style="fill:#090;fill-opacity:1;stroke:#000;stroke-width:4.99999952;stroke-linecap:round;stroke-linejoin:round;stroke-miterlimit:4;stroke-opacity:1;stroke-dasharray:none" d="M437.219 237.688c-6.59 0-13.203 1.274-18.719 3.812-17.85 8.215-25.85 27.593-34.281 43.625-2.365 4.497-4.692 9.666-6.938 15.281l32.938 15.344L501 393.781l-1.656 4.063H642.28c3.926-14.229 7.38-28.607 10.407-43.125-6.257-23.765-14.838-51.934-24.125-69.594-8.432-16.032-16.431-35.41-34.282-43.625-11.031-5.077-26.343-5.077-37.375 0-6.411 2.95-11.56 7.342-15.906 12.5-4.347-5.158-9.495-9.55-15.906-12.5-11.032-5.077-26.344-5.077-37.375 0-6.412 2.95-11.56 7.342-15.906 12.5-4.347-5.158-9.495-9.55-15.907-12.5-5.515-2.538-12.097-3.813-18.687-3.813z"/><path style="fill:#00f;fill-opacity:1;stroke:#000;stroke-width:4.99999952;stroke-linecap:round;stroke-linejoin:round;stroke-miterlimit:4;stroke-opacity:1;stroke-dasharray:none" d="m533.14 298.306 6.975 9.018a341.376 341.376 0 0 1 17.084 30.548M463.953 298.306l6.975 9.018a341.376 341.376 0 0 1 17.083 30.548" transform="translate(7.859 -44.306)"/><path style="fill:gold;fill-opacity:1;stroke:#000;stroke-width:8;stroke-linecap:round;stroke-linejoin:miter;stroke-miterlimit:4;stroke-opacity:1;stroke-dasharray:none" d="M24.172 427.212c9.617 38.315 22.509 75.533 39.719 110.719h534.781c17.21-35.185 30.07-72.405 39.688-110.72H24.172z" transform="translate(7.859 -44.306)"/><path style="fill:#fff;stroke:#000;stroke-width:8;stroke-linecap:round;stroke-linejoin:round;stroke-miterlimit:4;stroke-opacity:1;stroke-dasharray:none" d="M3.047 49.462c-1.79 19.473-7.421 39.258-4.094 58.531 2.75 15.928 10.054 31.255 19.407 44.438 32.095 45.237 76.58 81.3 121.935 113.23 75.224 52.956 171.118 72.24 245.002 127.05 50.18 37.227 94.27 83.562 130.844 134.22 17.47 24.197 28.878 51.405 41.187 79.5a437.055 437.055 0 0 0 27.625-42.563c8.75-15.357 23.532-47.375 23.532-47.375s-13.535-31.796-23.532-45.719c-32.449-45.192-71.96-86.077-116.2-119.813-66.961-51.063-151.744-74.339-221.425-121.624-55.83-37.887-116.54-74.207-156.093-128.87-10.7-14.786-15.868-30.051-19.907-51.005z" transform="translate(7.859 -44.306)"/><path style="fill:none;stroke:#000;stroke-width:10.3125;stroke-linecap:butt;stroke-linejoin:round;stroke-miterlimit:4;stroke-opacity:1;stroke-dasharray:none" d="M3.055 49.456A1371.32 1371.32 0 0 0 .439 267.409c6.976 103.028 26.467 207.51 77.153 296.47 55.633 97.642 148.402 171.898 253.687 203.061 105.285-31.163 198.055-105.42 253.689-203.061 50.686-88.96 70.176-193.442 77.152-296.47a1371.317 1371.317 0 0 0-2.616-217.953H331.28z" transform="translate(7.859 -44.306)"/><path style="fill:#fff;stroke:#000;stroke-width:5;stroke-linecap:round;stroke-linejoin:round;stroke-miterlimit:4;stroke-opacity:1;stroke-dasharray:none" d="M452.453 79.306s9.58 10.604 12.875 16.875c7.325 13.94 11.973 29.395 14.688 44.906.391 2.236.618 4.998.781 7.937-2.472-.166-4.803-.383-6.719-.718-15.51-2.715-30.966-7.331-44.906-14.657-6.271-3.295-16.875-12.906-16.875-12.906v92.469s10.604-9.58 16.875-12.875c13.94-7.325 29.395-11.973 44.906-14.688 1.917-.335 4.247-.555 6.719-.718-.163 2.94-.39 5.732-.781 7.968-2.715 15.512-7.363 30.967-14.688 44.907-3.295 6.27-12.875 16.875-12.875 16.875h92.469s-9.61-10.604-12.906-16.875c-7.325-13.94-11.941-29.395-14.656-44.907-.399-2.277-.678-5.125-.844-8.125 3.457.156 6.783.422 9.375.875 15.51 2.715 30.967 7.363 44.906 14.688 6.271 3.295 16.875 12.875 16.875 12.875v-92.469s-10.604 9.611-16.875 12.906c-13.94 7.326-29.395 11.942-44.906 14.657-2.592.453-5.919.714-9.375.875.166-3 .445-5.817.844-8.094 2.714-15.511 7.33-30.967 14.656-44.906 3.295-6.271 12.906-16.875 12.906-16.875h-92.469z" transform="translate(7.859 -44.306)"/></svg>
